Papirus/48x48/apps/org.gabmus.gnome-feeds.svg

<svg xmlns="http://www.w3.org/2000/svg" width="48" height="48" version="1">
 <path style="opacity:0.2" d="m 2,34 v 3.558594 1.480468 c 0,1.6001 1.3291872,2.886968 3,2.949219 V 42 H 5.1230469 20.876953 21 v -0.01172 c 1.670813,-0.06225 3,-1.349119 3,-2.949219 0,1.6001 1.329187,2.886968 3,2.949219 V 42 H 27.123047 42.876953 43 v -0.01172 c 1.670813,-0.06225 3,-1.349119 3,-2.949219 V 37.558594 34 H 43 27 24 21 5 Z"/>
 <flowRoot style="font-size:40px;line-height:1.25;letter-spacing:0px;word-spacing:0px" xml:space="preserve">
  <flowRegion>
   <rect width="165" height="615" x="1305" y="-877"/>
  </flowRegion>
  <flowPara/>
 </flowRoot>
 <flowRoot style="font-size:40px;line-height:1.25;letter-spacing:0px;word-spacing:0px" xml:space="preserve">
  <flowRegion>
   <rect width="3865" height="2420" x="700" y="-1422"/>
  </flowRegion>
  <flowPara/>
 </flowRoot>
 <flowRoot style="font-size:40px;line-height:1.25;letter-spacing:0px;word-spacing:0px" xml:space="preserve">
  <flowRegion>
   <rect width="1700" height="1645" x="1030" y="-1062"/>
  </flowRegion>
  <flowPara/>
 </flowRoot>
 <flowRoot style="font-size:40px;line-height:1.25;letter-spacing:0px;word-spacing:0px" xml:space="preserve">
  <flowRegion>
   <rect width="1575" height="1475" x="660" y="-1162"/>
  </flowRegion>
  <flowPara/>
 </flowRoot>
 <path style="fill:#ff8915" d="m 24,33 v 3.558594 1.480468 c 0,1.6001 1.329187,2.886968 3,2.949219 V 41 H 27.123047 42.876953 43 v -0.01172 c 1.670813,-0.06225 3,-1.349119 3,-2.949219 V 36.558594 33 H 43 27 Z"/>
 <path style="fill:#ff8915" d="m 2,33 v 3.558594 1.480468 c 0,1.6001 1.3291872,2.886968 3,2.949219 V 41 H 5.1230469 20.876953 21 v -0.01172 c 1.670813,-0.06225 3,-1.349119 3,-2.949219 V 36.558594 33 H 21 5 Z"/>
 <path style="opacity:0.2" d="M 5.1221202,7 C 3.3925399,7 2.000134,8.320356 2.000134,9.96044 v 17.1978 7.4011 1.48022 C 2.000134,37.679643 3.3925399,39 5.1221202,39 H 42.87788 c 1.72958,0 3.121986,-1.320357 3.121986,-2.96044 V 34.55934 27.15824 9.96044 C 45.999866,8.320356 44.60746,7 42.87788,7 Z"/>
 <path style="fill:#e4e4e4" d="M 5.1221202,6 C 3.3925399,6 2.000134,7.320356 2.000134,8.96044 v 17.1978 7.4011 1.48022 C 2.000134,36.679643 3.3925399,38 5.1221202,38 H 42.87788 c 1.72958,0 3.121986,-1.320357 3.121986,-2.96044 V 33.55934 26.15824 8.96044 C 45.999866,7.320356 44.60746,6 42.87788,6 Z"/>
 <path style="opacity:0.05" d="M 5.1221202,6 C 3.3925399,6 2.000134,7.320356 2.000134,8.96044 v 17.1978 7.4011 1.48022 C 2.000134,36.679643 3.3925399,38 5.1221202,38 H 24 V 6 Z"/>
 <path style="fill:#ff8915" d="M 32.999666,19.999999 A 1.9998334,2.0000002 0 0 1 30.999831,22 1.9998334,2.0000002 0 0 1 29,19.999999 a 1.9998334,2.0000002 0 0 1 1.999831,-1.999998 1.9998334,2.0000002 0 0 1 1.999835,1.999998 z" overflow="visible"/>
 <path style="fill:#ff8915" d="m 29,13.999999 h 1.013914 V 15.014 H 29 Z M 36.013414,21.014 h 0.985919 V 22 h -0.985919 z m 3.999668,0 h 0.985917 V 22 H 40.013082 Z M 29,10 h 1.013914 v 1.013999 H 29 Z"/>
 <path style="fill:#ff8915" d="m 30.013914,16.014 c 2.77377,0 4.999585,2.226999 4.999585,5 h 1.999832 c 0,-3.854001 -3.144738,-7.000001 -6.999417,-7.000001 z" font-weight="400" overflow="visible"/>
 <path style="fill:#ff8915" d="M 30.013914,12.027999 A 8.9712522,8.9720005 0 0 1 39.000166,21.014 H 41 C 40.999033,14.96 36.06941,10.027999 30.013914,10.027999 Z" font-weight="400" overflow="visible"/>
 <path style="fill:#ff8915" d="M 30.999831,14.999999 A 0.99991668,1.0000001 0 0 1 29.999917,16 0.99991668,1.0000001 0 0 1 29,14.999999 a 0.99991668,1.0000001 0 0 1 0.999917,-1 0.99991668,1.0000001 0 0 1 0.999914,1 z m 0,-3.999999 A 0.99991668,1.0000001 0 0 1 29.999917,11.999998 0.99991668,1.0000001 0 0 1 29,11 a 0.99991668,1.0000001 0 0 1 0.999917,-1 0.99991668,1.0000001 0 0 1 0.999914,1 z m 5.999502,9.999999 A 0.99991668,1.0000001 0 0 1 35.999416,22 a 0.99991668,1.0000001 0 0 1 -0.999917,-1.000001 0.99991668,1.0000001 0 0 1 0.999917,-1 0.99991668,1.0000001 0 0 1 0.999917,1 z m 3.999666,0 A 0.99991668,1.0000001 0 0 1 39.999082,22 a 0.99991668,1.0000001 0 0 1 -0.999916,-1.000001 0.99991668,1.0000001 0 0 1 0.999916,-1 0.99991668,1.0000001 0 0 1 0.999917,1 z" overflow="visible"/>
 <rect style="fill:#ff8915" width="10" height="2" x="7" y="9" ry="0"/>
 <rect style="fill:#9c9891" width="12" height="2" x="7" y="13" ry="0"/>
 <rect style="fill:#9c9891" width="8" height="2" x="29" y="25" ry="0"/>
 <rect style="fill:#9c9891" width="10" height="2" x="7" y="17" ry="0"/>
 <rect style="fill:#9c9891" width="12" height="2" x="7" y="21" ry="0"/>
 <rect style="fill:#9c9891" width="12" height="2" x="7" y="25" ry="0"/>
 <rect style="fill:#9c9891" width="8" height="2" x="7" y="29" ry="0"/>
 <rect style="fill:#9c9891" width="12" height="2" x="7" y="33" ry="0"/>
 <rect style="fill:#9c9891" width="12" height="2" x="29" y="29" ry="0"/>
 <rect style="fill:#9c9891" width="12" height="2" x="29" y="33" ry="0"/>
 <path style="opacity:0.2;fill:#ffffff" d="M 5.1230469 6 C 3.3934666 6 2 7.3208535 2 8.9609375 L 2 9.9609375 C 2 8.3208535 3.3934666 7 5.1230469 7 L 42.876953 7 C 44.606533 7 46 8.3208535 46 9.9609375 L 46 8.9609375 C 46 7.3208535 44.606533 6 42.876953 6 L 5.1230469 6 z"/>
</svg>

<svg xmlns="http://www.w3.org/2000/svg" width="48" height="48" version="1">
 <path style="opacity:0.2" d="M 2,34 V 39.039 C 2,40.639 3.3292,41.938 5,42 H 21 C 22.671,41.938 24,40.639 24,39.039 24,40.639 25.329,41.938 27,42 H 43 C 44.671,41.938 46,40.639 46,39.039 V 34 Z"/>
 <path style="fill:#ff8915" d="M 24,33 V 38.039 C 24,39.639 25.329,40.938 27,41 H 43 C 44.671,40.938 46,39.639 46,38.039 V 33 Z"/>
 <path style="fill:#ff8915" d="M 2,33 V 38.039 C 2,39.639 3.3292,40.938 5,41 H 21 C 22.671,40.938 24,39.639 24,38.039 V 33 Z"/>
 <path style="opacity:0.2" d="M 5.1221,7 C 3.3925,7 2.0001,8.3204 2.0001,9.9604 V 36.04 C 2.0001,37.68 3.3925,39 5.1221,39 H 42.878 C 44.607,39 46,37.68 46,36.04 V 9.9604 C 46,8.3204 44.607,7 42.878,7 Z"/>
 <path style="fill:#e4e4e4" d="M 5.1221,6 C 3.3925,6 2.0001,7.3204 2.0001,8.9604 V 35.04 C 2.0001,36.68 3.3925,38 5.1221,38 H 42.878 C 44.607,38 46,36.68 46,35.04 V 8.9604 C 46,7.3204 44.607,6 42.878,6 Z"/>
 <path style="opacity:0.05" d="M 5.1221,6 C 3.3925,6 2.0001,7.3204 2.0001,8.9604 V 35.04 C 2.0001,36.68 3.3925,38 5.1221,38 H 24 V 6 Z"/>
 <path style="fill:#ff8915" d="M 33,20 A 1.9998,2 0 0 1 31,22 1.9998,2 0 0 1 29,20 1.9998,2 0 0 1 31,18 1.9998,2 0 0 1 33,20 Z"/>
 <path style="fill:#ff8915" d="M 29,14 H 30.014 V 15.014 H 29 Z M 36.013,21.014 H 36.999 V 22 H 36.013 Z M 40.013,21.014 H 40.999 V 22 H 40.013 Z M 29,10 H 30.014 V 11.014 H 29 Z"/>
 <path style="fill:#ff8915" d="M 30.014,16.014 C 32.788,16.014 35.013,18.241 35.013,21.014 H 37.013 C 37.013,17.16 33.869,14.014 30.014,14.014 Z"/>
 <path style="fill:#ff8915" d="M 30.014,12.028 A 8.9713,8.972 0 0 1 39,21.014 H 41 C 40.999,14.96 36.069,10.028 30.014,10.028 Z"/>
 <path style="fill:#ff8915" d="M 31,15 A 0.99992,1 0 0 1 30,16 0.99992,1 0 0 1 29,15 0.99992,1 0 0 1 30,14 0.99992,1 0 0 1 31,15 Z M 31,11 A 0.99992,1 0 0 1 30,12 0.99992,1 0 0 1 29,11 0.99992,1 0 0 1 30,10 0.99992,1 0 0 1 31,11 Z M 36.999,21 A 0.99992,1 0 0 1 35.999,22 0.99992,1 0 0 1 34.999,21 0.99992,1 0 0 1 35.999,20 0.99992,1 0 0 1 36.999,21 Z M 40.999,21 A 0.99992,1 0 0 1 39.999,22 0.99992,1 0 0 1 38.999,21 0.99992,1 0 0 1 39.999,20 0.99992,1 0 0 1 40.999,21 Z"/>
 <rect style="fill:#ff8915" width="10" height="2" x="7" y="9" ry="0"/>
 <rect style="fill:#9c9891" width="12" height="2" x="7" y="13" ry="0"/>
 <rect style="fill:#9c9891" width="8" height="2" x="29" y="25" ry="0"/>
 <rect style="fill:#9c9891" width="10" height="2" x="7" y="17" ry="0"/>
 <rect style="fill:#9c9891" width="12" height="2" x="7" y="21" ry="0"/>
 <rect style="fill:#9c9891" width="12" height="2" x="7" y="25" ry="0"/>
 <rect style="fill:#9c9891" width="8" height="2" x="7" y="29" ry="0"/>
 <rect style="fill:#9c9891" width="12" height="2" x="7" y="33" ry="0"/>
 <rect style="fill:#9c9891" width="12" height="2" x="29" y="29" ry="0"/>
 <rect style="fill:#9c9891" width="12" height="2" x="29" y="33" ry="0"/>
 <path style="opacity:0.2;fill:#ffffff" d="M 5.123,6 C 3.3935,6 2,7.3209 2,8.9609 V 9.9609 C 2,8.3209 3.3935,7 5.123,7 H 42.877 C 44.607,7 46,8.3209 46,9.9609 V 8.9609 C 46,7.3209 44.607,6 42.877,6 Z"/>
</svg>
